/* XPM */
static char *_5cb899ed10f4e168a7fc669e75f923eDgsviRlFDuQbMusS[] = {
/* columns rows colors chars-per-pixel */
"32 32 12 1 ",
"  c #33702A",
". c #C77507",
"X c #58B14A",
"o c #F3A705",
"O c #F5A70A",
"+ c #FFC313",
"@ c #F7C814",
"# c #F8E623",
"$ c #FDE32D",
"% c #FFFD69",
"& c #FEFD6D",
"* c white",
/* pixels */
"X X X X X X X X X X X X X X X X ",
" X X X X X X X X X X X X X X X X",
"X X X X X X X X X X X X X X X X ",
" X X X X X Xoooooooo X X X X X X",
"X X X X X oo*&&#####ooX X X X X ",
" X X X Xoo**&#########oo X X X X",
"X X X Xo**&&###########+. X X X ",
" X X Xo*&&#############++. X X X",
"X X Xo*&################++. X X ",
" X X o*&################++.X X X",
"X X o*&######......######++.X X ",
" X Xo*&#####.@@@@@@.#####++. X X",
"X Xo*&#####.@@@@@@$$.#####++. X ",
" X o*&####.@@@@@@$%%%O####++.X X",
"X Xo&#####.@@@@$$%%%%O####++. X ",
" X o######.@@@$$%%%%%O####++.X X",
"X Xo######.@@@$%%%%%%O####++. X ",
" X o######.@@$%%%%%%%O####++.X X",
"X Xo######.@$%%%%%%%%O####++. X ",
" X o######+.$%%%%%%%O%####++.X X",
"X X o+#####+.%%%%%%O%%####+oX X ",
" X Xo+######+OOOOOO%%#####+o X X",
"X X Xo+##################+o X X ",
" X X o+##################+oX X X",
"X X X o+################+oX X X ",
" X X X o################oX X X X",
"X X X X oo############ooX X X X ",
" X X X X Xoo########oo X X X X X",
"X X X X X X ooooooooX X X X X X ",
" X X X X X X X X X X X X X X X X",
"X X X X X X X X X X X X X X X X ",
" X X X X X X X X X X X X X X X X"
};
