/* XPM */
static char *_8fdef062a594b17f38d05854c93c339FpBMaZpi3fbEMcs0[] = {
/* columns rows colors chars-per-pixel */
"32 32 7 1 ",
"  c black",
". c #161002",
"X c #231A04",
"o c #33702A",
"O c #574411",
"+ c #4AA03D",
"@ c #58B14A",
/* pixels */
"o@o@o@o@o@o@o@o@o@o@o@o@o@o@o@o@",
"@o@o@o@o@o@o@o@o@o@o@o@o@o@o@o@o",
"o@o@o@o@o@o@OOOOOOOOo@o@o@o@o@o@",
"@o@o@o@o@OOOOXXXXXXOOOOo@o@o@o@o",
"o@o@o@o@OOXXXX....XXXXOOo@o@o@o@",
"@o@o@o@OOXX....  ....XXOOo@o@o@o",
"o@o@o@OOXX..        ..XXOOo@o@o@",
"@o@o@OOXX..          ..XXOOo@o@o",
"o@o@OOXX..            ..XXOOo@o@",
"@o@OOXX..              ..XXOOo@o",
"o@oOXX..                ..XXO@o@",
"@o@OX..                  ..XOo@o",
"o@OOX.                    .XOOo@",
"@oOXX.                    .XXO@o",
"o@OX..                    ..XOo@",
"@oOX.                      .XO@o",
"o@OX.                      .XOo@",
"@oOX..                    ..XO@o",
"o@OXX.                    .XXOo@",
"@oOOX.                    .XOO@o",
"o@oOX..                  ..XO@o@",
"@o@OXX..                ..XXOo@o",
"o@oOOXX..              ..XXOO@o@",
"@o@oOOXX..            ..XXOO@o@o",
"o@o@oOOXX..          ..XXOO@o@o@",
"@o@o@oOOXX..        ..XXOO@o@o@o",
"o@o@o@oOOXX....  ....XXOO@o@o@o@",
"@o@o@o@oOOXXXX....XXXXOO@o@o@o@o",
"o@o@o@o@oOOOOXXXXXXOOOO@o@o@o@o@",
"@o@o@o@o@o@oOOOOOOOO@o@o@o@o@o@o",
"o@o@o@o@o@o@o@o@o@o@o@o@o@o@o@o@",
"+o@o@o@o@o@o@o@o@o@o@o@o@o@o@o@o"
};
