/* XPM */
static char *cbb10d9316fb42f8f6a80c412a9237edlZd8tpL3oCmBPYTl[] = {
/* columns rows colors chars-per-pixel */
"32 32 3 1 ",
"  c #33702A",
". c #4AA03D",
"X c #58B14A",
/* pixels */
" X X X X X X X X X X X X X X X X",
"X X X X X X X X X X X X X X X X ",
" X X X X X X X X X X X X X X X X",
"X X X X X X X X X X X X X X X X ",
" X X X X X X X X X X X X X X X X",
"X X X X X X X X X X X X X X X X ",
" X X X X X X X X X X X X X X X X",
"X X X X X X X X X X X X X X X X ",
" X X X X X X X X X X X X X X X X",
"X X X X X X X X X X X X X X X X ",
" X X X X X X X X X X X X X X X X",
"X X X X X X X X X X X X X X X X ",
" X X X X X X X X X X X X X X X X",
"X X X X X X X X X X X X X X X X ",
" X X X X X X X X X X X X X X X X",
"X X X X X X X X X X X X X X X X ",
" X X X X X X X X X X X X X X X X",
"X X X X X X X X X X X X X X X X ",
" X X X X X X X X X X X X X X X X",
"X X X X X X X X X X X X X X X X ",
" X X X X X X X X X X X X X X X X",
"X X X X X X X X X X X X X X X X ",
" X X X X X X X X X X X X X X X X",
"X X X X X X X X X X X X X X X X ",
" X X X X X X X X X X X X X X X X",
"X X X X X X X X X X X X X X X X ",
" X X X X X X X X X X X X X X X X",
"X X X X X X X X X X X X X X X X ",
" X X X X X X X X X X X X X X X X",
"X X X X X X X X X X X X X X X X ",
" X X X X X X X X X X X X X X X X",
". X X X X X X X X X X X X X X X "
};
