/* XPM */
static char *fc74e6dea2154906c097a67fce7723e3N66ul7JUNY5aRZqa[] = {
/* columns rows colors chars-per-pixel */
"32 32 8 1 ",
"  c black",
". c #33702A",
"X c #20357D",
"o c #58B14A",
"O c #CA9D6E",
"+ c #2E4CB3",
"@ c #F9CC9F",
"# c #FFF2CD",
/* pixels */
".o.o.o.o.o.o.o.o.o.o.o.o.o.o.o.o",
"o.o.o.o.o.o.o.o.o.o.o.o.o.o.o.o.",
".o.o.o.o.             .o.o.o.o.o",
"o.o.o.o. O@########### .o.o.o.o.",
".o.o.o. O@#### #### ### .o.o.o.o",
"o.o.o.o O@#### #### ### o.o.o.o.",
".o.o.o. O@#### #### ### .o.o.o.o",
"o.o.o.o O@#### #### ### o.o.o.o.",
".o.o.o. O@############# .o.o.o.o",
"o.o.o.o O@@############ o.o.o.o.",
".o.o.o. OO@@@@@@@@@@@@@ .o.o.o.o",
"o.o.o.o  OOOOOOOOOOOOO  o.o.o.o.",
".o.o.o.o               o.o.o.o.o",
"o.o.o.o. XX+++++++++++ .o.o.o.o.",
".o.o.o.o XX+++++++++++ o.o.o.o.o",
"o.o.o.o. XX+++++++++++ .o.o.o.o.",
".o.o.o.o XX+++++++++++ o.o.o.o.o",
"o.o.o.o. XX+++++++++++ .o.o.o.o.",
".o.o.o.o XX+++++++++++ o.o.o.o.o",
"o.o.o.o. XX+++++++++++ .o.o.o.o.",
".o.o.o.o XX+XXXXXXX+++ o.o.o.o.o",
"o.o.o.o. XX+       X++ .o.o.o.o.",
".o.o.o.o XXX o.o.o X++ o.o.o.o.o",
"o.o.o.o. XXX .o.o. XXX .o.o.o.o.",
".o.o.o.o     o.o.o     o.o.o.o.o",
"o.o.o.o.o.o.o.o.o.o.o.o.o.o.o.o.",
".o.o.o.o.o.o.o.o.o.o.o.o.o.o.o.o",
"o.o.o.o.o.o.o.o.o.o.o.o.o.o.o.o.",
".o.o.o.o.o.o.o.o.o.o.o.o.o.o.o.o",
"o.o.o.o.o.o.o.o.o.o.o.o.o.o.o.o.",
".o.o.o.o.o.o.o.o.o.o.o.o.o.o.o.o",
"o.o.o.o.o.o.o.o.o.o.o.o.o.o.o.o."
};
