/* XPM */
static char *_18be16c4f734e66ed7adf5b38b205edTmqfzq1P1XUDaXSk[] = {
/* columns rows colors chars-per-pixel */
"32 32 4 1 ",
"  c #484848",
". c gray38",
"X c #6C6C6C",
"o c gray46",
/* pixels */
"o........ ooooo........ ooooo...",
"......... oX........... oX......",
"......... o............ o.......",
"........o ............o ........",
".......Xo ...........Xo ........",
"....ooooo ........ooooo ........",
"                                ",
".. ooooo........ ooooo........ o",
".. oX........... oX........... o",
".. o............ o............ o",
".o ............o ............o .",
"Xo ...........Xo ...........Xo .",
"oo ........ooooo ........ooooo .",
"                                ",
"o........ ooooo........ ooooo...",
"......... oX........... oX......",
"......... o............ o.......",
"........o ............o ........",
".......Xo ...........Xo ........",
"....ooooo ........ooooo ........",
"                                ",
".. ooooo........ ooooo........ o",
".. oX........... oX........... o",
".. o............ o............ o",
".o ............o ............o .",
"Xo ...........Xo ...........Xo .",
"oo ........ooooo ........ooooo .",
"                                ",
"o........ ooooo........ ooooo...",
"......... oX........... oX......",
"......... o............ o.......",
"........o ............o ........"
};
